X: 39950
T: Thornton, The
R: jig
M: 6/8
K: Amixolydian
|:c2A ABA|d2e fed|c2A ABA|B2g gdB|
c2A ABA|d2e fec|d2.f c2.a|B2g gdB:|
|:.c2e efe|efg afd|cde efg|B2g gdB|
.c2e efe|efg afc|dfd cac|B2g gdB:|

